packages/components/bolt-icons/src/svgs/product/product/crm/marketing.svg

<?xml version="1.0" encoding="UTF-8" standalone="no"?>
<svg width="32px" height="32px" viewBox="0 0 32 32" version="1.1" xmlns="http://www.w3.org/2000/svg" xmlns:xlink="http://www.w3.org/1999/xlink">
    <!-- Generator: Sketch 46.2 (44496) - http://www.bohemiancoding.com/sketch -->
    <title>Icon/product/CRM/Marketing-gray</title>
    <desc>Created with Sketch.</desc>
    <defs></defs>
    <g id="Symbols" stroke="none" stroke-width="1" fill="none" fill-rule="evenodd">
        <g id="Icon/product/CRM/Marketing-gray" fill="#1F2555">
            <path d="M29.9952329,23.0010916 C29.9952329,23.5535038 29.5473041,24.0019326 28.9953918,24.0019326 L25.9958685,23.5405059 L25.9958685,6.46521965 L28.9953918,6.00379298 C29.5473041,6.00379298 29.9952329,6.45122187 29.9952329,7.00363408 L29.9952329,23.0010916 Z M2.99952329,20.0015683 C2.447611,20.0015683 1.99968219,19.5541394 1.99968219,19.0017272 L1.99968219,11.0029985 C1.99968219,10.4510862 2.447611,10.0031574 2.99952329,10.0031574 L23.9961863,6.77267079 L23.9961863,23.2325548 L2.99952329,20.0015683 Z M13.9977754,27.7528364 L7.99872877,26.2090818 L7.99872877,22.8581143 L13.9977754,23.7154781 L13.9977754,27.7528364 Z M29.9952329,2.0044286 L29.9952329,4.00511063 L1.99968219,8.00347518 C0.895357702,8.00347518 0,8.89883288 0,10.0031574 L0,20.0015683 C0,21.104893 0.895357702,22.0012505 1.99968219,22.0012505 L5.99904658,22.5726597 L5.99904658,27.000456 C5.99904658,27.5528682 6.44697539,28.0002971 6.99888768,28.0002971 C7.00838617,28.0002971 7.01688482,27.9977975 7.02588339,27.9972976 L14.6951645,29.970484 C14.7941488,29.9959799 14.8931331,30.001979 14.9906176,29.9994794 C14.9931172,29.9994794 14.9951168,29.9999793 14.9976165,29.9999793 C15.0031156,29.9999793 15.0081148,29.9984795 15.0126141,29.9984795 C15.057107,29.9959799 15.1011,29.9924805 15.1445931,29.9854816 C15.1940852,29.9779828 15.2410778,29.9664846 15.2875704,29.9519869 C15.2910698,29.9509871 15.2950692,29.9499872 15.2985686,29.9484875 C15.7025044,29.8210077 15.9974575,29.4475671 15.9974575,29.0001382 L15.9974575,24.0009327 L29.9952329,26.0006149 L29.9952329,28.0002971 L31.9949151,28.0002971 L31.9949151,24.0019326 L31.9949151,6.00379298 L31.9949151,2.0044286 L29.9952329,2.0044286 Z" id="Page-1"></path>
        </g>
    </g>
</svg>

<svg id="a6b4ccad-a696-44ea-8113-b4e3458e286f" data-name="Layer 1" xmlns="http://www.w3.org/2000/svg" viewBox="0 0 31.9 28"><title>marketing</title><path id="a1496b46-795c-4192-8669-54cedbdf56d8" data-name="Page-1" d="M30,23a.94.94,0,0,1-1,1l-3-.5V6.5L29,6a.94.94,0,0,1,1,1ZM3,20a.94.94,0,0,1-1-1V11a.94.94,0,0,1,1-1L24,6.8V23.3Zm11,7.8L8,26.3V22.9l6,.9ZM30,2V4L2,8a2,2,0,0,0-2,2V20a2,2,0,0,0,2,2l4,.6V27a.94.94,0,0,0,1,1H7l7.7,2h.5a1,1,0,0,0,.7-.9v-5l14,2v2h2V2Z" transform="translate(0 -2)" fill="#1f2555" fill-rule="evenodd"/></svg>
